X:1
T:He Knows
T:He Knows
T:Philip Paul Bliss, 1876
T:Mary G. Brainard, arr. by Philip P. Bliss
T:Public Domain Courtesy of the Cyber Hymnal™
T:Public Domain Courtesy of the Cyber Hymnal™
C:Philip Paul Bliss, 1876
Z:Public Domain
Z:Courtesy of the Cyber Hymnal™
%%score ( 1 2 ) ( 3 4 )
L:1/8
Q:1/4=105
M:12/8
K:Eb
V:1 treble 
V:2 treble 
V:3 bass 
V:4 bass 
V:1
|: E | [EG]2 [EG] [EG]2 [EF] [EF] E4 [EG] | B2 [FB] [GB]2 [FA] [EG]3- [EG]2 [EG] | %3
w: 1.~I|know not what a- waits me, God|kind- ly veils mine eyes, * And|
w: 2.~One|step I see be- fore me, ’Tis|all I need to see, * The|
w: 3.~O|bliss- ful lack of wis- dom, ’Tis|bless- èd not to know; * He|
w: 4.~So|on I go not know- ing, I|would not if I might; * I’d|
 [Gc]2 [Gc] [Gc] ([Fc][Ec]) [Ec]2 [EB] [EB]2 [EB] | [EB]2 [EB] (=AG)[EA] [DB]3- [DB]2 [FA] | %5
w: o’er each step of~my * on- ward way He|makes new scenes * to rise; * And|
w: light of Heav’n more * bright- ly shines, When|earth’s il- lu- * sions flee; * And|
w: holds me with His * own right hand, And|will not let * me go, * And|
w: ra- ther walk in~the * dark with God Than|go a- lone * in~the light; * I’d|
 [EG]2 [EG] ([EG][FA])[GB] [GB]2 E !fermata![Ee]2 [Ec] | [GB]2 [EB] A2 [B,D] [B,E]3- [B,E]2 || %7
w: ev- ’ry joy * He sends me, comes A|sweet and glad sur- prise. *|
w: sweet- ly through * the si- lence, came His|lov- ing “Fol- low Me.” *|
w: lulls my trou- * bled soul to rest In|Him Who loves me so. *|
w: ra- ther walk * in faith with Him Than|go a- lone by sight. *|
"^Refrain" E | (EA)[EA] [EA]2 [EA] [EG] [EB]4 [EG] | ([DF][EG])[FA] [Ac]2 [GB] [EG]3- [EG]2 [GB] | %10
w: |||
w: Where|He * may lead me I’ll fol- low,|My * trust in Him re- * pose|
w: |||
w: |||
 [Ge]2 [Ge] [Fd]2 [Fd] [Ed]2 [Ac] [Ac]2 [Ac] | [Ac]2 [AB] [Ac]2 [AB] [G-B]3 [EG]2 [GB] | %12
w: ||
w: And ev- ’ry hour in per- fect peace|I’ll sing, He knows, He knows; And|
w: ||
w: ||
 [Ge]2 [Ge] [Fd]2 [Fd] [Ed]2 [Ac] !fermata![Ac]2 [Ac] |1,2,3 %13
w: |
w: ev- ’ry hour in per- fect peace I’ll|
w: |
w: |
 B2 [GB] [Ac]2 !fermata![Ad] [Ge]3- [Ge]2 :|4 [Ge]3- [Ge]2 [GB] || %15
w: ||
w: sing, He knows, He knows. *||
w: ||
w: ||
 [GB]3- [GB]2 [EG] [EG]3- [EG]2 [B,E] | E6- ([B,E]3- [B,E]2) |] %17
w: ||
w: ||
w: ||
w: ||
V:2
|: E | x7 E4 x | (DE) x10 | x12 | x3 E2 x7 | x8 E x3 | x3 (DC) x6 || E | E2 x10 | x12 | x12 | x12 | %12
 x12 |1,2,3 B2 x9 :|4 x6 || x12 | B,3 C3 x5 |] %17
V:3
|: [E,G,] | [E,B,]2 [E,B,] [E,B,]2 [E,A,] [E,A,] [E,G,]4 [E,G,] | %2
w: ~|~ ~ ~ ~ ~ ~ ~|
 (F,G,)[B,,A,] (B,C)[B,,D] [E,E]3- [E,E]2 [E,B,] | %3
w: ~ * ~ ~ * ~ ~ * ~|
 [C,E]2 [C,E] [C,E] ([D,E][E,E]) [A,E]2 [G,B,] [G,B,]2 [G,B,] | %4
w: ~ ~ ~ ~ * ~ ~ ~ ~|
 [F,C]2 [F,C] [F,C]2 [F,C] [B,,B,]3- [B,,B,]2 [B,,B,] | %5
w: ~ ~ ~ ~ ~ * ~|
 [E,B,]2 [E,B,] [E,B,]2 [E,B,] [E,E]2 [G,_D] !fermata![A,C]2 [A,,E] | %6
w: ~ ~ ~ ~ ~ ~ ~ ~|
 (EB,)[B,,G,] [B,,F,]2 [B,,A,] [E,G,]3- [E,G,]2 || [E,G,] | %8
w: ~ * ~ ~ ~ ~ *|~|
 [A,,C]2 [A,,C] [A,,C]2 [A,,C] [E,B,] [E,G,]4 [E,B,] | %9
w: ~ ~ ~ ~ ~ ~ ~|
 [B,,B,]2 [B,,B,] (B,C)[B,,D] [E,E]3- [E,E]2 [E,C] | %10
w: ~ ~ ~ * ~ ~ * ~|
 [E,B,]2 [E,B,] [G,=B,]2 [G,B,] [A,C]2 [A,E] [A,E]2 [A,E] | %11
w: ~ ~ ~ ~ ~ ~ ~ ~|
 [B,D]2 [B,D] [B,,D]2 [B,,D] [E,-E]3 [E,B,]2 [E,B,] | %12
w: ~ ~ ~ ~ ~ ~ ~|
 [E,B,]2 [E,B,] [G,=B,]2 [G,B,] [A,E]2 [A,E] !fermata![A,E]2 [A,E] |1,2,3 %13
w: ~ ~ ~ ~ ~ ~ ~ ~|
 [G,E]2 [E,E] [A,E]2 !fermata!B, [E,B,]3- [E,B,]2 :|4 [E,B,]3- [E,B,]2 [E,E] || %15
w: ~ ~ ~ ~ ~ *|He * knows,|
 [E,E]3- [E,E]2 [E,B,] [E,B,]3- [E,B,]2 [E,,E,G,] | (G,3 A,3) [E,,E,G,]3- [E,,E,G,]2 |] %17
w: He * knows, He * knows.||
V:4
|: x | x12 | B,,2 B,,2 x8 | x12 | x12 | x12 | B,,2 x9 || x | x12 | x3 B,,2 x7 | x12 | x12 | %12
 x12 |1,2,3 x5 B, x5 :|4 x6 || x12 | [E,,-E,]6 x5 |] %17

